packages/icon/src/svg/social-github.icon.svg

<svg aria-label="social github icon" viewBox="0 0 24 24"><path fill-rule="evenodd" clip-rule="evenodd" d="M2 12c0 4.42 2.87 8.17 6.84 9.5.5.08.66-.23.66-.5v-1.69c-2.77.6-3.36-1.34-3.36-1.34-.46-1.16-1.11-1.47-1.11-1.47-.91-.62.07-.6.07-.6 1 .07 1.53 1.03 1.53 1.03.87 1.52 2.34 1.07 2.91.83.09-.65.35-1.09.63-1.34-2.22-.25-4.55-1.11-4.55-4.92 0-1.11.38-2 1.03-2.71-.1-.25-.45-1.29.1-2.64 0 0 .84-.27 2.75 1.02.79-.22 1.65-.33 2.5-.33.85 0 1.71.11 2.5.33 1.91-1.29 2.75-1.02 2.75-1.02.55 1.35.2 2.39.1 2.64.65.71 1.03 1.6 1.03 2.71 0 3.82-2.34 4.66-4.57 4.91.36.31.69.92.69 1.85V21c0 .27.16.59.67.5C19.14 20.16 22 16.42 22 12a10 10 0 00-20 0z"/></svg>

<svg width="24" height="24" viewBox="0 0 24 24" fill="none" xmlns="http://www.w3.org/2000/svg">
<path fill-rule="evenodd" clip-rule="evenodd" d="M2 12C2 16.42 4.87 20.17 8.84 21.5C9.34 21.58 9.5 21.27 9.5 21C9.5 20.77 9.5 20.14 9.5 19.31C6.73 19.91 6.14 17.97 6.14 17.97C5.68 16.81 5.03 16.5 5.03 16.5C4.12 15.88 5.1 15.9 5.1 15.9C6.1 15.97 6.63 16.93 6.63 16.93C7.5 18.45 8.97 18 9.54 17.76C9.63 17.11 9.89 16.67 10.17 16.42C7.95 16.17 5.62 15.31 5.62 11.5C5.62 10.39 6 9.5 6.65 8.79C6.55 8.54 6.2 7.5 6.75 6.15C6.75 6.15 7.59 5.88 9.5 7.17C10.29 6.95 11.15 6.84 12 6.84C12.85 6.84 13.71 6.95 14.5 7.17C16.41 5.88 17.25 6.15 17.25 6.15C17.8 7.5 17.45 8.54 17.35 8.79C18 9.5 18.38 10.39 18.38 11.5C18.38 15.32 16.04 16.16 13.81 16.41C14.17 16.72 14.5 17.33 14.5 18.26C14.5 19.6 14.5 20.68 14.5 21C14.5 21.27 14.66 21.59 15.17 21.5C19.14 20.16 22 16.42 22 12C22 9.34784 20.9464 6.8043 19.0711 4.92893C17.1957 3.05357 14.6522 2 12 2C6.47715 2 2 6.47715 2 12Z" fill="white"/>
</svg>
